chrome/content/skin/ico/help-search.svg

<?xml version="1.0" encoding="UTF-8" standalone="no"?>
<svg
   width="16"
   height="16"
   viewBox="0 0 16 16"
   version="1.1"
   id="svg25"
   sodipodi:docname="help-search.svg"
   inkscape:version="1.2.2 (732a01da63, 2022-12-09)"
   xmlns:inkscape="http://www.inkscape.org/namespaces/inkscape"
   xmlns:sodipodi="http://sodipodi.sourceforge.net/DTD/sodipodi-0.dtd"
   xmlns="http://www.w3.org/2000/svg"
   xmlns:svg="http://www.w3.org/2000/svg"
   xmlns:rdf="http://www.w3.org/1999/02/22-rdf-syntax-ns#"
   xmlns:cc="http://creativecommons.org/ns#"
   xmlns:dc="http://purl.org/dc/elements/1.1/">
  <metadata
     id="metadata31">
    <rdf:RDF>
      <cc:Work
         rdf:about="">
        <dc:format>image/svg+xml</dc:format>
        <dc:type
           rdf:resource="http://purl.org/dc/dcmitype/StillImage" />
      </cc:Work>
    </rdf:RDF>
  </metadata>
  <defs
     id="defs29" />
  <sodipodi:namedview
     pagecolor="#ffffff"
     bordercolor="#666666"
     borderopacity="1"
     objecttolerance="10"
     gridtolerance="10"
     guidetolerance="10"
     inkscape:pageopacity="0"
     inkscape:pageshadow="2"
     inkscape:window-width="2192"
     inkscape:window-height="1366"
     id="namedview27"
     showgrid="false"
     showguides="true"
     inkscape:guide-bbox="true"
     inkscape:zoom="44.547728"
     inkscape:cx="12.75037"
     inkscape:cy="4.7140451"
     inkscape:window-x="122"
     inkscape:window-y="1473"
     inkscape:window-maximized="0"
     inkscape:current-layer="svg25"
     inkscape:showpageshadow="2"
     inkscape:pagecheckerboard="0"
     inkscape:deskcolor="#d1d1d1">
    <sodipodi:guide
       position="8,15"
       orientation="0,-1"
       id="guide858"
       inkscape:locked="false" />
    <sodipodi:guide
       position="0.99892863,7.3744197"
       orientation="1,0"
       id="guide860"
       inkscape:locked="false" />
    <sodipodi:guide
       position="7.9577573,0.9992347"
       orientation="0,-1"
       id="guide869"
       inkscape:locked="false" />
  </sodipodi:namedview>
  <path
     style="fill:#ffffff;stroke-width:0.996244"
     id="path322"
     sodipodi:type="arc"
     sodipodi:cx="7.9432235"
     sodipodi:cy="7.9965076"
     sodipodi:rx="6.2141519"
     sodipodi:ry="6.4636741"
     sodipodi:start="0"
     sodipodi:end="6.2744843"
     sodipodi:open="true"
     sodipodi:arc-type="arc"
     d="M 14.157375,7.9965076 A 6.2141519,6.4636741 0 0 1 7.9567408,14.460166 6.2141519,6.4636741 0 0 1 1.7291304,8.0246278 6.2141519,6.4636741 0 0 1 7.9026717,1.5329712 6.2141519,6.4636741 0 0 1 14.15714,7.9402679"
     inkscape:label="background" />
  <path
     fill="context-fill"
     fill-opacity="context-fill-opacity"
     d="M 8,1 A 7,7 0 1 0 15,8 7.008,7.008 0 0 0 8,1 Z M 8,14 A 6,6 0 1 1 14,8 6.007,6.007 0 0 1 8,14 Z M 8,3.125 A 2.7,2.7 0 0 0 5.125,6 0.875,0.875 0 0 0 6.875,6 C 6.875,5 7.475,4.875 8,4.875 A 1.105,1.105 0 0 1 9.13,5.619 0.894,0.894 0 0 1 8.6,6.635 2.738,2.738 0 0 0 7.125,9 v 0.337 a 0.875,0.875 0 0 0 1.75,0 V 8.967 A 1.041,1.041 0 0 1 9.484,8.143 2.637,2.637 0 0 0 10.82,5.16 2.838,2.838 0 0 0 8,3.125 Z M 8,10.75 A 1.25,1.25 0 1 0 9.25,12 1.25,1.25 0 0 0 8,10.75 Z"
     id="path23"
     style="display:inline;fill:#0079ef;fill-opacity:1" />
  <path
     id="rect866"
     style="display:inline;fill:#0079ef;fill-opacity:1;stroke-width:1.00368"
     d="M 0.99892861,1 H 8 C 3.291947,3.6266835 3.2945479,3.6170604 0.99892861,8.0505077 Z"
     sodipodi:nodetypes="cccc"
     inkscape:label="corner-left" />
  <path
     id="rect871"
     style="display:inline;fill:#0079ef;fill-opacity:1"
     d="M 0.99892861,8.0634918 C 3.0706878,12.688673 3.1108048,12.688695 7.9362016,15.000765 H 0.99892861 Z"
     sodipodi:nodetypes="cccc"
     inkscape:label="corner-right" />
</svg>

<?xml version="1.0" encoding="UTF-8" standalone="no"?>
<svg
   xmlns:dc="http://purl.org/dc/elements/1.1/"
   xmlns:cc="http://creativecommons.org/ns#"
   xmlns:rdf="http://www.w3.org/1999/02/22-rdf-syntax-ns#"
   xmlns:svg="http://www.w3.org/2000/svg"
   xmlns="http://www.w3.org/2000/svg"
   xmlns:sodipodi="http://sodipodi.sourceforge.net/DTD/sodipodi-0.dtd"
   xmlns:inkscape="http://www.inkscape.org/namespaces/inkscape"
   width="16"
   height="16"
   viewBox="0 0 16 16"
   version="1.1"
   id="svg25"
   sodipodi:docname="help-search.svg"
   inkscape:version="1.0.1 (3bc2e813f5, 2020-09-07)">
  <metadata
     id="metadata31">
    <rdf:RDF>
      <cc:Work
         rdf:about="">
        <dc:format>image/svg+xml</dc:format>
        <dc:type
           rdf:resource="http://purl.org/dc/dcmitype/StillImage" />
        <dc:title></dc:title>
      </cc:Work>
    </rdf:RDF>
  </metadata>
  <defs
     id="defs29" />
  <sodipodi:namedview
     pagecolor="#ffffff"
     bordercolor="#666666"
     borderopacity="1"
     objecttolerance="10"
     gridtolerance="10"
     guidetolerance="10"
     inkscape:pageopacity="0"
     inkscape:pageshadow="2"
     inkscape:window-width="2192"
     inkscape:window-height="1366"
     id="namedview27"
     showgrid="false"
     showguides="true"
     inkscape:guide-bbox="true"
     inkscape:zoom="11.136932"
     inkscape:cx="4.9444444"
     inkscape:cy="12.977038"
     inkscape:window-x="0"
     inkscape:window-y="0"
     inkscape:window-maximized="0"
     inkscape:current-layer="svg25">
    <sodipodi:guide
       position="8,15"
       orientation="0,-1"
       id="guide858" />
    <sodipodi:guide
       position="0.99892863,7.3744197"
       orientation="1,0"
       id="guide860" />
    <sodipodi:guide
       position="7.9577573,0.9992347"
       orientation="0,-1"
       id="guide869" />
  </sodipodi:namedview>
  <path
     fill="context-fill"
     fill-opacity="context-fill-opacity"
     d="M8 1a7 7 0 1 0 7 7 7.008 7.008 0 0 0-7-7zm0 13a6 6 0 1 1 6-6 6.007 6.007 0 0 1-6 6zM8 3.125A2.7 2.7 0 0 0 5.125 6a.875.875 0 0 0 1.75 0c0-1 .6-1.125 1.125-1.125a1.105 1.105 0 0 1 1.13.744.894.894 0 0 1-.53 1.016A2.738 2.738 0 0 0 7.125 9v.337a.875.875 0 0 0 1.75 0v-.37a1.041 1.041 0 0 1 .609-.824A2.637 2.637 0 0 0 10.82 5.16 2.838 2.838 0 0 0 8 3.125zm0 7.625A1.25 1.25 0 1 0 9.25 12 1.25 1.25 0 0 0 8 10.75z"
     id="path23"
     style="fill:#0079ef;fill-opacity:1" />
  <path
     id="rect866"
     style="fill:#0079ef;fill-opacity:1;stroke-width:1.00368"
     d="M 0.99892861,1 H 8 C 3.291947,3.6266835 3.2945479,3.6170604 0.99892861,8.0505077 Z"
     sodipodi:nodetypes="cccc" />
  <path
     id="rect871"
     style="fill:#0079ef;fill-opacity:1"
     d="M 0.99892861,8.0634918 C 3.0706878,12.688673 3.1108048,12.688695 7.9362016,15.000765 H 0.99892861 Z"
     sodipodi:nodetypes="cccc" />
</svg>
